X:1     %Music
T:Hey Diddle Dis   %Tune name
C:     %Tune composer
N:Filkins Tradition     %Tune infos
Q:1/4=120     %Tempo
V:1     %
     %!STAVE 0 'Piano 1' @
     %!INSTR 'Piano 1 [Ch1]' 0 0 @
M:6/8     %Meter
L:1/8     %
K:G
d3/2e/d B3/2A/G |G3/2A/G ABc |d2 A B2 G |F D4 A-|Az/ B/c BAG |F2 A d2 A-|Az/ B/c BAG |F2 A d2 d-|dz/ e/d |d3/2e/d B3/2A/G |G3/2A/G ABc |d2 A B2 G |F G5]
     %End of file
